assets/images/members/firmaprofesional/firmaprofesional.svg

<svg xmlns="http://www.w3.org/2000/svg" viewBox="0 0 304 47"><path fill-rule="evenodd" d="M77.36 16.07c-1.49 0-2.24-.74-2.24-2.23s.75-2.23 2.24-2.23c1.52 0 2.28.74 2.28 2.23 0 .7-.2 1.25-.6 1.66q-.57.57-1.68.57m-10.27 20.2c-1.33 0-1.99-.72-1.99-2.16V22.64h-1.46c-1.05 0-1.58-.53-1.58-1.59 0-1.07.53-1.6 1.58-1.6h1.46v-.03c0-2.28.54-4 1.61-5.18 1.08-1.17 2.63-1.87 4.68-2.09l.95-.1c.61-.07 1.05.04 1.33.33.29.3.45.66.47 1.09.02.4-.07.77-.28 1.11a1.1 1.1 0 0 1-.86.58l-.76.07c-1.11.09-1.93.41-2.43.98-.51.56-.76 1.41-.76 2.53v.71h8.25c1.31 0 1.96.76 1.96 2.27v12.22c0 .72-.17 1.28-.5 1.69-.32.4-.81.61-1.46.61-.63 0-1.13-.21-1.48-.61-.34-.41-.51-.97-.51-1.69v-11.3h-6.26v11.47c0 1.44-.65 2.16-1.96 2.16m18.3 0c-1.34 0-2.02-.72-2.02-2.16V21.32c0-1.43.64-2.14 1.93-2.14 1.28 0 1.93.71 1.93 2.14v1.04c.76-1.94 2.38-3.02 4.87-3.24.9-.12 1.41.44 1.51 1.65.11 1.2-.44 1.87-1.64 2l-.7.07c-2.59.27-3.88 1.69-3.88 4.26v7.01c0 1.44-.67 2.16-2 2.16m12.4 0c-1.31 0-1.96-.72-1.96-2.16V21.32c0-1.43.64-2.14 1.93-2.14 1.28 0 1.92.71 1.92 2.14v.67c.47-.9 1.11-1.6 1.93-2.1.82-.51 1.77-.77 2.85-.77 2.32 0 3.83 1.08 4.55 3.24.48-1.01 1.18-1.8 2.09-2.36.9-.59 1.94-.88 3.09-.88 3.48 0 5.22 2.26 5.22 6.8v8.19c0 1.44-.66 2.16-1.99 2.16-1.31 0-1.96-.72-1.96-2.16v-8.02c0-1.27-.2-2.19-.6-2.78-.38-.58-1.03-.88-1.96-.88-1.03 0-1.85.4-2.44 1.19-.59.76-.88 1.83-.88 3.21v7.28c0 1.44-.65 2.16-1.96 2.16-1.33 0-1.99-.72-1.99-2.16v-8.02c0-1.27-.2-2.19-.6-2.78-.38-.58-1.03-.88-1.93-.88-1.03 0-1.85.4-2.44 1.19-.59.76-.88 1.83-.88 3.21v7.28c0 1.44-.67 2.16-1.99 2.16m30.79.07c-1.12 0-2.12-.23-3-.68-.87-.47-1.55-1.1-2.06-1.89-.48-.79-.73-1.68-.73-2.68 0-1.21.3-2.17.89-2.87q.885-1.08 2.88-1.56c1.32-.31 3.1-.47 5.34-.47h1.1v-.71c0-1.13-.23-1.94-.69-2.44-.46-.49-1.24-.74-2.34-.74-.61 0-1.28.08-1.99.23-.7.16-1.44.43-2.21.82-.51.24-.93.28-1.27.1-.34-.21-.57-.51-.7-.92-.1-.42-.08-.85.07-1.28.17-.43.49-.75.98-.95.97-.43 1.9-.73 2.78-.91.91-.18 1.73-.27 2.47-.27 2.25 0 3.93.56 5.02 1.69 1.1 1.1 1.65 2.83 1.65 5.17v8.13c0 1.44-.61 2.16-1.84 2.16q-1.86 0-1.86-2.16v-.75c-.36.93-.93 1.66-1.71 2.2-.78.52-1.71.78-2.78.78m.82-2.91c1.03 0 1.89-.38 2.56-1.15.7-.77 1.04-1.74 1.04-2.91v-.75h-1.07q-2.97 0-4.14.51c-.76.32-1.14.9-1.14 1.76 0 .75.24 1.35.73 1.83.48.47 1.16.71 2.02.71m13.34 8.93c-1.31 0-1.96-.71-1.96-2.13V21.32c0-1.43.64-2.14 1.93-2.14 1.31 0 1.96.71 1.96 2.14v.71c.44-.88 1.11-1.58 1.99-2.1.89-.54 1.9-.81 3.04-.81q2.025 0 3.54 1.05c1.03.69 1.83 1.69 2.4 2.97.57 1.27.85 2.79.85 4.57 0 1.76-.28 3.29-.85 4.6-.57 1.29-1.36 2.28-2.37 2.98q-1.515 1.05-3.57 1.05c-1.1 0-2.09-.25-2.98-.75a5.3 5.3 0 0 1-1.99-2.06v6.7c0 1.42-.66 2.13-1.99 2.13m5.85-9.24q1.77 0 2.85-1.35c.71-.92 1.07-2.28 1.07-4.06 0-1.8-.36-3.15-1.07-4.03q-1.08-1.35-2.85-1.35t-2.85 1.35c-.71.88-1.07 2.23-1.07 4.03 0 1.78.36 3.14 1.07 4.06q1.08 1.35 2.85 1.35m13.18 3.15c-1.35 0-2.02-.72-2.02-2.16V21.32c0-1.43.64-2.14 1.93-2.14 1.28 0 1.93.71 1.93 2.14v1.04c.76-1.94 2.38-3.02 4.87-3.24.9-.12 1.41.44 1.51 1.65.11 1.2-.44 1.87-1.64 2l-.7.07c-2.59.27-3.89 1.69-3.89 4.26v7.01c0 1.44-.66 2.16-1.99 2.16m17.17.07q-2.4 0-4.17-1.05c-1.18-.7-2.1-1.69-2.75-2.98-.66-1.31-.98-2.84-.98-4.6s.32-3.28.98-4.57c.65-1.28 1.57-2.28 2.75-2.97q1.77-1.05 4.17-1.05t4.17 1.05c1.18.69 2.1 1.69 2.75 2.97.66 1.29.98 2.81.98 4.57s-.32 3.29-.98 4.6c-.65 1.29-1.57 2.28-2.75 2.98q-1.77 1.05-4.17 1.05m0-3.22c1.18 0 2.13-.45 2.84-1.35.72-.92 1.08-2.28 1.08-4.06 0-1.8-.36-3.15-1.08-4.03-.71-.9-1.66-1.35-2.84-1.35q-1.77 0-2.85 1.35c-.71.88-1.07 2.23-1.07 4.03 0 1.78.36 3.14 1.07 4.06q1.08 1.35 2.85 1.35m14.04 3.15c-1.33 0-2-.72-2-2.16V22.64h-1.45c-1.05 0-1.58-.53-1.58-1.59 0-1.07.53-1.6 1.58-1.6h1.45v-.03c0-2.32.55-4.06 1.65-5.21 1.09-1.17 2.67-1.86 4.74-2.06l1.08-.1c.54-.05.94.07 1.2.37.25.29.38.65.38 1.08.02.41-.08.78-.29 1.12-.21.31-.52.49-.92.54l-.44.03c-1.2.09-2.07.42-2.62.98-.55.57-.82 1.42-.82 2.57v.71h2.68c1.06 0 1.58.53 1.58 1.6 0 1.06-.52 1.59-1.58 1.59h-2.68v11.47c0 1.44-.66 2.16-1.96 2.16m15.68.07c-1.75 0-3.26-.35-4.52-1.05a7.2 7.2 0 0 1-2.94-2.98c-.68-1.28-1.02-2.81-1.02-4.57 0-1.71.33-3.21.98-4.5.68-1.28 1.6-2.29 2.75-3.01q1.77-1.11 4.02-1.11c2.19 0 3.92.74 5.18 2.23 1.29 1.49 1.93 3.52 1.93 6.09 0 .83-.5 1.25-1.52 1.25h-9.54c.29 2.96 1.87 4.43 4.74 4.43.55 0 1.16-.06 1.83-.2.7-.16 1.35-.42 1.96-.78.55-.34 1.01-.44 1.39-.3.38.11.65.35.79.71.17.36.19.77.07 1.22-.11.43-.4.8-.89 1.11-.74.5-1.59.87-2.56 1.12-.95.23-1.83.34-2.65.34m-.57-14.35c-1.16 0-2.1.39-2.82 1.15q-1.065 1.155-1.29 3.12h7.77c-.08-1.38-.44-2.43-1.07-3.15-.61-.75-1.48-1.12-2.59-1.12m15.74 14.35c-.91 0-1.86-.1-2.88-.31a8 8 0 0 1-2.71-1.05c-.45-.27-.72-.59-.83-.98q-.15-.6.03-1.11c.15-.36.38-.62.7-.78.34-.16.73-.13 1.17.1.84.43 1.63.73 2.37.91.74.16 1.47.24 2.18.24q1.515 0 2.25-.54c.5-.38.76-.88.76-1.49 0-.95-.66-1.56-1.96-1.83l-3.17-.64c-2.67-.54-4.01-2.03-4.01-4.47 0-1.08.27-2.01.82-2.8q.855-1.185 2.34-1.83c.99-.43 2.13-.64 3.42-.64 1.85 0 3.5.44 4.96 1.32.4.22.63.54.69.94.09.39.05.76-.12 1.12-.15.34-.39.59-.73.74-.34.14-.73.09-1.17-.13a8 8 0 0 0-1.9-.78 6.5 6.5 0 0 0-1.7-.24c-1.04 0-1.81.2-2.31.58-.49.38-.73.89-.73 1.52q0 1.485 1.8 1.83l3.17.64c1.37.27 2.4.77 3.09 1.49q1.08 1.08 1.08 2.91c0 1.65-.6 2.94-1.8 3.89-1.21.93-2.81 1.39-4.81 1.39m11.73-20.27q-1.11 0-1.74-.57c-.4-.41-.6-.96-.6-1.66 0-.72.2-1.28.6-1.66q.63-.57 1.74-.57c1.56 0 2.34.74 2.34 2.23s-.78 2.23-2.34 2.23m0 20.17c-.63 0-1.12-.21-1.45-.61-.34-.41-.51-.97-.51-1.69V21.52c0-1.54.65-2.3 1.96-2.3 1.33 0 1.99.76 1.99 2.3v12.42c0 .72-.17 1.28-.5 1.69-.34.4-.84.61-1.49.61m13.15.1q-2.4 0-4.17-1.05c-1.18-.7-2.1-1.69-2.75-2.98-.66-1.31-.98-2.84-.98-4.6s.32-3.28.98-4.57c.65-1.28 1.57-2.28 2.75-2.97q1.77-1.05 4.17-1.05t4.17 1.05c1.18.69 2.1 1.69 2.75 2.97.66 1.29.98 2.81.98 4.57s-.32 3.29-.98 4.6c-.65 1.29-1.57 2.28-2.75 2.98q-1.77 1.05-4.17 1.05m0-3.22q1.77 0 2.85-1.35c.71-.92 1.07-2.28 1.07-4.06 0-1.8-.36-3.15-1.07-4.03q-1.08-1.35-2.85-1.35c-1.18 0-2.13.45-2.84 1.35-.72.88-1.08 2.23-1.08 4.03 0 1.78.36 3.14 1.08 4.06.71.9 1.66 1.35 2.84 1.35m13.12 3.15c-1.31 0-1.96-.72-1.96-2.16V21.32c0-1.43.64-2.14 1.93-2.14 1.28 0 1.93.71 1.93 2.14v.71c.52-.95 1.23-1.67 2.12-2.17.9-.5 1.91-.74 3.03-.74 3.65 0 5.47 2.26 5.47 6.8v8.19c0 1.44-.65 2.16-1.96 2.16-1.33 0-1.99-.72-1.99-2.16v-7.99c0-1.29-.23-2.22-.7-2.81-.44-.58-1.14-.88-2.08-.88-1.16 0-2.09.4-2.79 1.19-.67.76-1.01 1.79-1.01 3.08v7.41c0 1.44-.66 2.16-1.99 2.16m21.62.07c-1.11 0-2.11-.23-3-.68-.86-.47-1.55-1.1-2.05-1.89-.49-.79-.73-1.68-.73-2.68 0-1.21.29-2.17.88-2.87q.885-1.08 2.88-1.56c1.33-.31 3.11-.47 5.34-.47h1.11v-.71c0-1.13-.23-1.94-.7-2.44-.46-.49-1.24-.74-2.33-.74-.62 0-1.28.08-2 .23-.69.16-1.43.43-2.21.82-.5.24-.93.28-1.26.1-.34-.21-.57-.51-.7-.92-.1-.42-.08-.85.06-1.28.17-.43.5-.75.98-.95.97-.43 1.9-.73 2.79-.91q1.35-.27 2.46-.27c2.26 0 3.93.56 5.03 1.69 1.09 1.1 1.64 2.83 1.64 5.17v8.13q0 2.16-1.83 2.16c-1.24 0-1.87-.72-1.87-2.16v-.75a4.56 4.56 0 0 1-1.7 2.2q-1.17.78-2.79.78m.83-2.91c1.03 0 1.88-.38 2.56-1.15.69-.77 1.04-1.74 1.04-2.91v-.75h-1.07c-1.99 0-3.37.17-4.15.51-.75.32-1.13.9-1.13 1.76 0 .75.24 1.35.72 1.83.49.47 1.16.71 2.03.71m16.66 2.91q-5.28 0-5.28-6.33v-16c0-1.42.65-2.13 1.96-2.13 1.33 0 1.99.71 1.99 2.13v15.8c0 2.03.79 3.04 2.37 3.04h.47l.45-.06q.435-.075.6.27c.1.2.16.63.16 1.28 0 .57-.11 1.01-.32 1.32-.21.32-.56.51-1.04.58-.45.06-.9.1-1.36.1" style="fill:#0a203c"/><path d="M0 .69v45.62h4.14V4.85h29.03V.69zm24.88 12.39V8.94H8.33v29.07h4.16V21.43h12.39v-4.14H12.49v-4.21zm8.29 16.65V8.99h-4.15v16.58H16.63v12.49h16.54v-4.14H20.78v-4.19zM37.36.69v41.46H8.33v4.16h33.18V.69z" style="fill:#ff333b"/></svg>

<svg xmlns="http://www.w3.org/2000/svg" viewBox="0 0 304 47">
	<style>
		tspan { white-space:pre }
		.shp0 { fill: #0a203c } 
		.shp1 { fill: #ff333b } 
	</style>
	<path id="name" fill-rule="evenodd" class="shp0" d="M77.36 16.07C75.87 16.07 75.12 15.33 75.12 13.84C75.12 12.35 75.87 11.61 77.36 11.61C78.88 11.61 79.64 12.35 79.64 13.84C79.64 14.54 79.44 15.09 79.04 15.5C78.66 15.88 78.1 16.07 77.36 16.07ZM67.09 36.27C65.76 36.27 65.1 35.55 65.1 34.11L65.1 22.64L63.64 22.64C62.59 22.64 62.06 22.11 62.06 21.05C62.06 19.98 62.59 19.45 63.64 19.45L65.1 19.45L65.1 19.42C65.1 17.14 65.64 15.42 66.71 14.24C67.79 13.07 69.34 12.37 71.39 12.15L72.34 12.05C72.95 11.98 73.39 12.09 73.67 12.38C73.96 12.68 74.12 13.04 74.14 13.47C74.16 13.87 74.07 14.24 73.86 14.58C73.67 14.92 73.38 15.11 73 15.16L72.24 15.23C71.13 15.32 70.31 15.64 69.81 16.21C69.3 16.77 69.05 17.62 69.05 18.74L69.05 19.45L77.3 19.45C78.61 19.45 79.26 20.21 79.26 21.72L79.26 33.94C79.26 34.66 79.09 35.22 78.76 35.63C78.44 36.03 77.95 36.24 77.3 36.24C76.67 36.24 76.17 36.03 75.82 35.63C75.48 35.22 75.31 34.66 75.31 33.94L75.31 22.64L69.05 22.64L69.05 34.11C69.05 35.55 68.4 36.27 67.09 36.27ZM85.39 36.27C84.05 36.27 83.37 35.55 83.37 34.11L83.37 21.32C83.37 19.89 84.01 19.18 85.3 19.18C86.58 19.18 87.23 19.89 87.23 21.32L87.23 22.36C87.99 20.42 89.61 19.34 92.1 19.12C93 19 93.51 19.56 93.61 20.77C93.72 21.97 93.17 22.64 91.97 22.77L91.27 22.84C88.68 23.11 87.39 24.53 87.39 27.1L87.39 34.11C87.39 35.55 86.72 36.27 85.39 36.27ZM97.79 36.27C96.48 36.27 95.83 35.55 95.83 34.11L95.83 21.32C95.83 19.89 96.47 19.18 97.76 19.18C99.04 19.18 99.68 19.89 99.68 21.32L99.68 21.99C100.15 21.09 100.79 20.39 101.61 19.89C102.43 19.38 103.38 19.12 104.46 19.12C106.78 19.12 108.29 20.2 109.01 22.36C109.49 21.35 110.19 20.56 111.1 20C112 19.41 113.04 19.12 114.19 19.12C117.67 19.12 119.41 21.38 119.41 25.92L119.41 34.11C119.41 35.55 118.75 36.27 117.42 36.27C116.11 36.27 115.46 35.55 115.46 34.11L115.46 26.09C115.46 24.82 115.26 23.9 114.86 23.31C114.48 22.73 113.83 22.43 112.9 22.43C111.87 22.43 111.05 22.83 110.46 23.62C109.87 24.38 109.58 25.45 109.58 26.83L109.58 34.11C109.58 35.55 108.93 36.27 107.62 36.27C106.29 36.27 105.63 35.55 105.63 34.11L105.63 26.09C105.63 24.82 105.43 23.9 105.03 23.31C104.65 22.73 104 22.43 103.1 22.43C102.07 22.43 101.25 22.83 100.66 23.62C100.07 24.38 99.78 25.45 99.78 26.83L99.78 34.11C99.78 35.55 99.11 36.27 97.79 36.27ZM128.58 36.34C127.46 36.34 126.46 36.11 125.58 35.66C124.71 35.19 124.03 34.56 123.52 33.77C123.04 32.98 122.79 32.09 122.79 31.09C122.79 29.88 123.09 28.92 123.68 28.22C124.27 27.5 125.23 26.98 126.56 26.66C127.88 26.35 129.66 26.19 131.9 26.19L133 26.19L133 25.48C133 24.35 132.77 23.54 132.31 23.04C131.85 22.55 131.07 22.3 129.97 22.3C129.36 22.3 128.69 22.38 127.98 22.53C127.28 22.69 126.54 22.96 125.77 23.35C125.26 23.59 124.84 23.63 124.5 23.45C124.16 23.24 123.93 22.94 123.8 22.53C123.7 22.11 123.72 21.68 123.87 21.25C124.04 20.82 124.36 20.5 124.85 20.3C125.82 19.87 126.75 19.57 127.63 19.39C128.54 19.21 129.36 19.12 130.1 19.12C132.35 19.12 134.03 19.68 135.12 20.81C136.22 21.91 136.77 23.64 136.77 25.98L136.77 34.11C136.77 35.55 136.16 36.27 134.93 36.27C133.69 36.27 133.07 35.55 133.07 34.11L133.07 33.36C132.71 34.29 132.14 35.02 131.36 35.56C130.58 36.08 129.65 36.34 128.58 36.34ZM129.4 33.43C130.43 33.43 131.29 33.05 131.96 32.28C132.66 31.51 133 30.54 133 29.37L133 28.62L131.93 28.62C129.95 28.62 128.57 28.79 127.79 29.13C127.03 29.45 126.65 30.03 126.65 30.89C126.65 31.64 126.89 32.24 127.38 32.72C127.86 33.19 128.54 33.43 129.4 33.43ZM142.74 42.36C141.43 42.36 140.78 41.65 140.78 40.23L140.78 21.32C140.78 19.89 141.42 19.18 142.71 19.18C144.02 19.18 144.67 19.89 144.67 21.32L144.67 22.03C145.11 21.15 145.78 20.45 146.66 19.93C147.55 19.39 148.56 19.12 149.7 19.12C151.05 19.12 152.23 19.47 153.24 20.17C154.27 20.86 155.07 21.86 155.64 23.14C156.21 24.41 156.49 25.93 156.49 27.71C156.49 29.47 156.21 31 155.64 32.31C155.07 33.6 154.28 34.59 153.27 35.29C152.26 35.99 151.07 36.34 149.7 36.34C148.6 36.34 147.61 36.09 146.72 35.59C145.86 35.08 145.2 34.39 144.73 33.53L144.73 40.23C144.73 41.65 144.07 42.36 142.74 42.36ZM148.59 33.12C149.77 33.12 150.72 32.67 151.44 31.77C152.15 30.85 152.51 29.49 152.51 27.71C152.51 25.91 152.15 24.56 151.44 23.68C150.72 22.78 149.77 22.33 148.59 22.33C147.41 22.33 146.46 22.78 145.74 23.68C145.03 24.56 144.67 25.91 144.67 27.71C144.67 29.49 145.03 30.85 145.74 31.77C146.46 32.67 147.41 33.12 148.59 33.12ZM161.77 36.27C160.42 36.27 159.75 35.55 159.75 34.11L159.75 21.32C159.75 19.89 160.39 19.18 161.68 19.18C162.96 19.18 163.61 19.89 163.61 21.32L163.61 22.36C164.37 20.42 165.99 19.34 168.48 19.12C169.38 19 169.89 19.56 169.99 20.77C170.1 21.97 169.55 22.64 168.35 22.77L167.65 22.84C165.06 23.11 163.76 24.53 163.76 27.1L163.76 34.11C163.76 35.55 163.1 36.27 161.77 36.27ZM178.94 36.34C177.34 36.34 175.95 35.99 174.77 35.29C173.59 34.59 172.67 33.6 172.02 32.31C171.36 31 171.04 29.47 171.04 27.71C171.04 25.95 171.36 24.43 172.02 23.14C172.67 21.86 173.59 20.86 174.77 20.17C175.95 19.47 177.34 19.12 178.94 19.12C180.54 19.12 181.93 19.47 183.11 20.17C184.29 20.86 185.21 21.86 185.86 23.14C186.52 24.43 186.84 25.95 186.84 27.71C186.84 29.47 186.52 31 185.86 32.31C185.21 33.6 184.29 34.59 183.11 35.29C181.93 35.99 180.54 36.34 178.94 36.34ZM178.94 33.12C180.12 33.12 181.07 32.67 181.78 31.77C182.5 30.85 182.86 29.49 182.86 27.71C182.86 25.91 182.5 24.56 181.78 23.68C181.07 22.78 180.12 22.33 178.94 22.33C177.76 22.33 176.81 22.78 176.09 23.68C175.38 24.56 175.02 25.91 175.02 27.71C175.02 29.49 175.38 30.85 176.09 31.77C176.81 32.67 177.76 33.12 178.94 33.12ZM192.98 36.27C191.65 36.27 190.98 35.55 190.98 34.11L190.98 22.64L189.53 22.64C188.48 22.64 187.95 22.11 187.95 21.05C187.95 19.98 188.48 19.45 189.53 19.45L190.98 19.45L190.98 19.42C190.98 17.1 191.53 15.36 192.63 14.21C193.72 13.04 195.3 12.35 197.37 12.15L198.45 12.05C198.99 12 199.39 12.12 199.65 12.42C199.9 12.71 200.03 13.07 200.03 13.5C200.05 13.91 199.95 14.28 199.74 14.62C199.53 14.93 199.22 15.11 198.82 15.16L198.38 15.19C197.18 15.28 196.31 15.61 195.76 16.17C195.21 16.74 194.94 17.59 194.94 18.74L194.94 19.45L197.62 19.45C198.68 19.45 199.2 19.98 199.2 21.05C199.2 22.11 198.68 22.64 197.62 22.64L194.94 22.64L194.94 34.11C194.94 35.55 194.28 36.27 192.98 36.27ZM208.66 36.34C206.91 36.34 205.4 35.99 204.14 35.29C202.87 34.59 201.89 33.6 201.2 32.31C200.52 31.03 200.18 29.5 200.18 27.74C200.18 26.03 200.51 24.53 201.16 23.24C201.84 21.96 202.76 20.95 203.91 20.23C205.09 19.49 206.43 19.12 207.93 19.12C210.12 19.12 211.85 19.86 213.11 21.35C214.4 22.84 215.04 24.87 215.04 27.44C215.04 28.27 214.54 28.69 213.52 28.69L203.98 28.69C204.27 31.65 205.85 33.12 208.72 33.12C209.27 33.12 209.88 33.06 210.55 32.92C211.25 32.76 211.9 32.5 212.51 32.14C213.06 31.8 213.52 31.7 213.9 31.84C214.28 31.95 214.55 32.19 214.69 32.55C214.86 32.91 214.88 33.32 214.76 33.77C214.65 34.2 214.36 34.57 213.87 34.88C213.13 35.38 212.28 35.75 211.31 36C210.36 36.23 209.48 36.34 208.66 36.34ZM208.09 21.99C206.93 21.99 205.99 22.38 205.27 23.14C204.56 23.91 204.13 24.95 203.98 26.26L211.75 26.26C211.67 24.88 211.31 23.83 210.68 23.11C210.07 22.36 209.2 21.99 208.09 21.99ZM223.83 36.34C222.92 36.34 221.97 36.24 220.95 36.03C219.94 35.83 219.04 35.48 218.24 34.98C217.79 34.71 217.52 34.39 217.41 34C217.31 33.6 217.32 33.23 217.44 32.89C217.59 32.53 217.82 32.27 218.14 32.11C218.48 31.95 218.87 31.98 219.31 32.21C220.15 32.64 220.94 32.94 221.68 33.12C222.42 33.28 223.15 33.36 223.86 33.36C224.87 33.36 225.62 33.18 226.11 32.82C226.61 32.44 226.87 31.94 226.87 31.33C226.87 30.38 226.21 29.77 224.91 29.5L221.74 28.86C219.07 28.32 217.73 26.83 217.73 24.39C217.73 23.31 218 22.38 218.55 21.59C219.12 20.8 219.9 20.19 220.89 19.76C221.88 19.33 223.02 19.12 224.31 19.12C226.16 19.12 227.81 19.56 229.27 20.44C229.67 20.66 229.9 20.98 229.96 21.38C230.05 21.77 230.01 22.14 229.84 22.5C229.69 22.84 229.45 23.09 229.11 23.24C228.77 23.38 228.38 23.33 227.94 23.11C227.29 22.75 226.66 22.49 226.04 22.33C225.45 22.17 224.88 22.09 224.34 22.09C223.3 22.09 222.53 22.29 222.03 22.67C221.54 23.05 221.3 23.56 221.3 24.19C221.3 25.18 221.9 25.79 223.1 26.02L226.27 26.66C227.64 26.93 228.67 27.43 229.36 28.15C230.08 28.87 230.44 29.84 230.44 31.06C230.44 32.71 229.84 34 228.64 34.95C227.43 35.88 225.83 36.34 223.83 36.34ZM235.56 16.07C234.82 16.07 234.24 15.88 233.82 15.5C233.42 15.09 233.22 14.54 233.22 13.84C233.22 13.12 233.42 12.56 233.82 12.18C234.24 11.8 234.82 11.61 235.56 11.61C237.12 11.61 237.9 12.35 237.9 13.84C237.9 15.33 237.12 16.07 235.56 16.07ZM235.56 36.24C234.93 36.24 234.44 36.03 234.11 35.63C233.77 35.22 233.6 34.66 233.6 33.94L233.6 21.52C233.6 19.98 234.25 19.22 235.56 19.22C236.89 19.22 237.55 19.98 237.55 21.52L237.55 33.94C237.55 34.66 237.38 35.22 237.05 35.63C236.71 36.03 236.21 36.24 235.56 36.24ZM248.71 36.34C247.11 36.34 245.72 35.99 244.54 35.29C243.36 34.59 242.44 33.6 241.79 32.31C241.13 31 240.81 29.47 240.81 27.71C240.81 25.95 241.13 24.43 241.79 23.14C242.44 21.86 243.36 20.86 244.54 20.17C245.72 19.47 247.11 19.12 248.71 19.12C250.31 19.12 251.7 19.47 252.88 20.17C254.06 20.86 254.98 21.86 255.63 23.14C256.29 24.43 256.61 25.95 256.61 27.71C256.61 29.47 256.29 31 255.63 32.31C254.98 33.6 254.06 34.59 252.88 35.29C251.7 35.99 250.31 36.34 248.71 36.34ZM248.71 33.12C249.89 33.12 250.84 32.67 251.56 31.77C252.27 30.85 252.63 29.49 252.63 27.71C252.63 25.91 252.27 24.56 251.56 23.68C250.84 22.78 249.89 22.33 248.71 22.33C247.53 22.33 246.58 22.78 245.87 23.68C245.15 24.56 244.79 25.91 244.79 27.71C244.79 29.49 245.15 30.85 245.87 31.77C246.58 32.67 247.53 33.12 248.71 33.12ZM261.83 36.27C260.52 36.27 259.87 35.55 259.87 34.11L259.87 21.32C259.87 19.89 260.51 19.18 261.8 19.18C263.08 19.18 263.73 19.89 263.73 21.32L263.73 22.03C264.25 21.08 264.96 20.36 265.85 19.86C266.75 19.36 267.76 19.12 268.88 19.12C272.53 19.12 274.35 21.38 274.35 25.92L274.35 34.11C274.35 35.55 273.7 36.27 272.39 36.27C271.06 36.27 270.4 35.55 270.4 34.11L270.4 26.12C270.4 24.83 270.17 23.9 269.7 23.31C269.26 22.73 268.56 22.43 267.62 22.43C266.46 22.43 265.53 22.83 264.83 23.62C264.16 24.38 263.82 25.41 263.82 26.7L263.82 34.11C263.82 35.55 263.16 36.27 261.83 36.27ZM283.45 36.34C282.34 36.34 281.34 36.11 280.45 35.66C279.59 35.19 278.9 34.56 278.4 33.77C277.91 32.98 277.67 32.09 277.67 31.09C277.67 29.88 277.96 28.92 278.55 28.22C279.14 27.5 280.1 26.98 281.43 26.66C282.76 26.35 284.54 26.19 286.77 26.19L287.88 26.19L287.88 25.48C287.88 24.35 287.65 23.54 287.18 23.04C286.72 22.55 285.94 22.3 284.85 22.3C284.23 22.3 283.57 22.38 282.85 22.53C282.16 22.69 281.42 22.96 280.64 23.35C280.14 23.59 279.71 23.63 279.38 23.45C279.04 23.24 278.81 22.94 278.68 22.53C278.58 22.11 278.6 21.68 278.74 21.25C278.91 20.82 279.24 20.5 279.72 20.3C280.69 19.87 281.62 19.57 282.51 19.39C283.41 19.21 284.23 19.12 284.97 19.12C287.23 19.12 288.9 19.68 290 20.81C291.09 21.91 291.64 23.64 291.64 25.98L291.64 34.11C291.64 35.55 291.03 36.27 289.81 36.27C288.57 36.27 287.94 35.55 287.94 34.11L287.94 33.36C287.59 34.29 287.02 35.02 286.24 35.56C285.46 36.08 284.53 36.34 283.45 36.34ZM284.28 33.43C285.31 33.43 286.16 33.05 286.84 32.28C287.53 31.51 287.88 30.54 287.88 29.37L287.88 28.62L286.81 28.62C284.82 28.62 283.44 28.79 282.66 29.13C281.91 29.45 281.53 30.03 281.53 30.89C281.53 31.64 281.77 32.24 282.25 32.72C282.74 33.19 283.41 33.43 284.28 33.43ZM300.94 36.34C297.42 36.34 295.66 34.23 295.66 30.01L295.66 14.01C295.66 12.59 296.31 11.88 297.62 11.88C298.95 11.88 299.61 12.59 299.61 14.01L299.61 29.81C299.61 31.84 300.4 32.85 301.98 32.85C302.15 32.85 302.31 32.85 302.45 32.85C302.6 32.83 302.75 32.81 302.9 32.79C303.19 32.74 303.39 32.83 303.5 33.06C303.6 33.26 303.66 33.69 303.66 34.34C303.66 34.91 303.55 35.35 303.34 35.66C303.13 35.98 302.78 36.17 302.3 36.24C301.85 36.3 301.4 36.34 300.94 36.34Z" />
	<path id="element" class="shp1" d="M0 0.69L0 46.31L4.14 46.31L4.14 4.85L33.17 4.85L33.17 0.69L0 0.69ZM24.88 13.08L24.88 8.94L8.33 8.94L8.33 38.01L12.49 38.01L12.49 21.43L24.88 21.43L24.88 17.29L12.49 17.29L12.49 13.08L24.88 13.08ZM33.17 29.73L33.17 8.99L29.02 8.99L29.02 25.57L16.63 25.57L16.63 38.06L33.17 38.06L33.17 33.92L20.78 33.92L20.78 29.73L33.17 29.73ZM37.36 0.69L37.36 42.15L8.33 42.15L8.33 46.31L41.51 46.31L41.51 0.69L37.36 0.69Z" />
</svg>
